X:1
T:The Lord of the Harvest
T:The Lord of the Harvest
T:Grant Colfax Tullar
T:Laura E. Pixley Newell, 1898
T:Public Domain Courtesy of the Cyber Hymnal™
T:Public Domain Courtesy of the Cyber Hymnal™
C:Grant Colfax Tullar
Z:Public Domain
Z:Courtesy of the Cyber Hymnal™
%%score ( 1 2 ) ( 3 4 )
L:1/8
Q:1/4=110
M:6/8
K:Ab
V:1 treble 
V:2 treble 
V:3 bass 
V:4 bass 
V:1
 [CE] | [CE][DF][DG] [EA][EB][Ec] | [Fd]3 [DF]2 [FB] | [FB][EA][EG] [EG][DF][DF] | %4
w: 1.~The|Lord of the har- vest is|com- ing, We|know not the day it will|
w: 2.~The|Lord of the har- vest is|com- ing, The|world shall ac- know- ledge His|
w: 3.~The|Lord of the har- vest is|com- ing, “Be|rea- dy,” He bids thee to|
 [CE]3- [CE]2 [CE] | [CE][DF][DG] [EA][EB][Ec] | [Fd]3 [DF]2 [DF] | [CE][EA][EG] [Ec][Ec]>[DB] | %8
w: be * When|He shall ap- pear to His|peo- ple, The|hour we His glo- ry shall|
w: might * When|He shall de- scend with His|an- gels, His|an- gels of glo- ry and|
w: wait, * For|oh, in the clouds we shall|see Him, If|ear- ly He com- eth, or|
 [CA]3- [CA]2 [FA] | [FA][=EG][FA] [Ac][GB][FA] | [=EG]3 C2 C | .F.G.A .B.A.B | %12
w: see. * Oh|soul, are you rea- dy to|meet Him, His|own can you joy- ful- ly|
w: light. * A|mes- sage of joy to His|faith- ful, But|where will the faith- less be|
w: late. * Pre-|pare, nor de- lay, bid Him|wel- come, So|soon His dear face thou shalt|
 ([=E-c]3 [Ed]2) [DE] | [CE][DF][DG] [EA][EB][Ec] | [Fd]3 [DF]2 [DF] | [CE][EA][EG] [Ec][Ec]>[DB] | %16
w: yield, * When|Je- sus shall come in His|beau- ty To|earth, to His great har- vest|
w: found? * When|Je- sus shall come to His|peo- ple His|voice through the world shall re-|
w: see, * The|Sav- ior is com- ing so|sure- ly, A|mes- sage He’ll bring un- to|
 [CA]3- [CA]2 ||"^Refrain" [CE] | c3- [Ec][EB][EA] | A3 G2 E | d3- [Ed][Ec][EB] | c3- [Ec]2 [Ec] | %22
w: field? *||||||
w: sound. *|The|Lord the har- vest|is com- ing,|is ing, We know|not day and|
w: thee. *||||||
 [Ee][Ee][Ee] [Ee][Ed][Ec] | [Fd]3 [Fc]2 [FB] | [EA][EA][EA] [DG][DF][DG] | [CA]3- [CA]2 |] %26
w: ||||
w: we know not the hour, When|He shall ap-|pear in His glo- ry, His|might *|
w: ||||
V:2
 x | x6 | x6 | x6 | x6 | x6 | x6 | x6 | x6 | x6 | x3 C2 C | FGA BAB | x6 | x6 | x6 | x6 | x5 || x | %18
 EEE x3 | EEE EEE | GGG x3 | EEE x3 | x6 | x6 | x6 | x5 |] %26
V:3
 [A,,A,] | [A,,A,][D,A,][B,,E,] [C,A,][E,G,]A, | [D,A,]3 [D,A,]2 [B,,D] | %3
 [B,,D][E,C][E,B,] [E,B,][E,G,][E,G,] | [A,,A,]3- [A,,A,]2 [A,,A,] | %5
 [A,,A,][D,A,][B,,E,] [C,A,][E,G,]A, | [D,A,]3 [D,A,]2 [D,A,] | %7
 [E,A,][E,C][E,B,] [E,A,][E,A,]>[E,G,] | [A,,E,A,]3- [A,,E,A,]2 [C,C] | %9
 [C,C][C,C][C,C] [C,C][C,C][C,C] | [C,C]3 C,2 C, | F,A,A, .B,A,.B, | ([C,G,-]3 [B,,G,]2) [E,G,] | %13
 [A,,A,][D,A,][B,,E,] [C,A,][E,G,]A, | [D,A,]3 [D,A,]2 [D,A,] | %15
 [E,A,][E,C][E,B,] [E,A,][E,A,]>[E,G,] | [A,,E,A,]3- [A,,E,A,]2 || A, | %18
 [A,C][A,C][A,C] [A,C][A,D][A,C] | [E,C][E,C][E,C] [E,B,][E,B,][E,G,] | %20
 [E,B,][E,B,][E,B,] [E,B,][E,A,][E,G,] | A,[E,A,][C,A,] [A,,A,]2 [A,,A,] | %22
 [C,A,][C,A,][C,A,] [C,A,][B,,G,][A,,A,] | [D,A,]3 [D,A,]2 [D,D] | %24
 [E,C][E,C][E,C] [E,B,][E,A,][E,B,] | [A,,A,]3- [A,,A,]2 |] %26
V:4
 x | x5 A, | x6 | x6 | x6 | x5 A, | x6 | x6 | x6 | x6 | x3 C,2 C, | .F,.A,.A, B,.A,B, | x6 | %13
 x5 A, | x6 | x6 | x5 || A, | x6 | x6 | x6 | A, x5 | x6 | x6 | x6 | x5 |] %26

